X: 6427
T: Castle, The
R: jig
M: 6/8
K: Adorian
|:cBA BAG|AGE DB,G,|~A,3 EDB,|DEG AGE|
c2A BdB|AGE DB,G,|~A,3 EDB,|DEG A2B:|
|:cBA a3|bag edB|GBd ~g3|GBd GBd|
cBc dcd|ede gfg|age dBG|E2G A2B:|

